!! 00000] TT[WS
!!!OTL: Dui hua
!!!ARE: Asia, China,ÿShanxi Zuoquan
!! Ethnic Group: Han
!! WI, 164
!!!SCT: J0198
!!!YEM: Copyright 1995, estate of Helmut Schaffrath.
**kern
*ICvox
*Ivox
*M2/4
*k[f#]
*G:
{8.dd
16ee
8gg
8aa
=1
8ee
8dd
4b
=2
8.dd
16ee
8dd
8b
=3
16a
16b
8g
4a}
=4
{8dd
8b
8dd
16dd
16dd
=5
8g
8b
4a
=6
8dd
8b
8dd
16dd
16dd
=7
8g
8b
4a}
=8
{8dd
16b
16dd
4a
=9
8.g
16b
4a
=10
8.b
16b
8b
8b
=11
8dd
16b
16dd
4a}
=12
{8dd
16ff#
16ff#
8ee
8ff#
=13
8dd
8ff#
8ee
8dd
=14
8cc
8cc
8cc
8cc
=15
4a
4dd
=16
8.b
16a
4g
=17
8.b
16dd
8f#
8e
=18
2d}
=19
{8.b
16dd
8b
8dd
=20
8.gg
16ee
4dd
=21
8.b
16dd
8b
8dd
=22
8.gg
16ee
4dd}
=23
{8b
8dd
8a
8b
=24
4g
4g
=25
8.dd
16b
8a
8e
=26
2d}
==
!!!AGN: Xiaodiao, Duihua. Qingge
!!!ONB: ESAC (Essen Associative Code) Database: CHINA
!!!AMT: simple duple
!!!AIN: vox
!!!EED: Helmut Schaffrath
!!!EEV: 1.0
*-
